X:62
T:Cooley's Hornpipe
R:hornpipe
C:Paddy O'Brien, Tipperary
D:Noel Hill & Tony Linnane
D:Mary Bergin: Feadoga Stain 2
Z:id:hn-hornpipe-62
M:C|
K:G
(3def|gG~G2 EGDC|B,DGB dg~g2|e2ce d2Bd|cAAG A2 (3def|
gG~G2 EGDC|B,DGB dg~g2|ecAG FAdc|BGGF G2:|
|:GA|BG (3Bcd edBd|g2bg edBd|~g3e dBGA|BAAG Ad^cd|
BG~G2 E2cE|~E2cE DGBd|~g3e dBcA|BGGF G2:|
<end>
<start>
